packages/foundations/assets/icons/functional/images/environment/globe_16.svg

<svg width="16" height="16" viewBox="0 0 16 16" fill="none" xmlns="http://www.w3.org/2000/svg">
<g clip-path="url(#clip0_185_806)">
<path fill-rule="evenodd" clip-rule="evenodd" d="M7.99998 1.6C9.70142 1.6 11.3249 2.2868 12.5268 3.4732C13.7132 4.67512 14.4 6.29856 14.4 8C14.4 11.5278 11.5278 14.4 7.99998 14.4C4.47214 14.4 1.59998 11.5278 1.59998 8C1.59998 4.47216 4.47214 1.6 7.99998 1.6ZM5.01438 8.79608H3.2619C3.57502 10.7409 5.0651 12.2804 6.98534 12.6986C6.25942 11.9262 5.38062 10.2675 5.01438 8.79608ZM9.70901 8.79608H6.67222C7.39454 11.3134 8.52942 12.6668 9.1239 12.6668C9.5055 12.6668 9.81125 11.6941 9.80805 10.0301C9.80805 9.65496 9.77973 9.23992 9.70901 8.79608ZM12.7389 8.79608H11.3169C11.3883 9.24672 11.4032 9.66816 11.4104 10.0599C11.4104 10.6077 11.3564 11.101 11.2624 11.5434C11.9248 10.8657 12.572 9.95984 12.7389 8.79608ZM4.7219 4.48784C3.97662 5.138 3.42462 6.20696 3.2623 7.20392H4.69814C4.61462 6.6848 4.58158 6.23208 4.57822 5.8472C4.57822 5.23752 4.65438 4.79696 4.7219 4.48784ZM9.1239 3.33272C9.75462 3.99488 10.7357 5.64464 11.0053 7.20392H12.7377C12.4256 5.29312 10.981 3.77336 9.1239 3.33272ZM6.84254 3.3332C6.50294 3.4124 6.21766 4.30592 6.22086 5.96992C6.22086 6.34504 6.24918 6.76 6.31982 7.20392H9.3567C8.6159 4.68656 7.45134 3.19104 6.84254 3.3332Z" fill="#1A1C1F"/>
</g>
<defs>
<clipPath id="clip0_185_806">
<rect width="16" height="16" fill="white"/>
</clipPath>
</defs>
</svg>

<svg xmlns="http://www.w3.org/2000/svg" width="16" height="16" fill="none"><g clip-path="url(#a)"><path fill="#1A1C1F" fill-rule="evenodd" d="M8 1.6c1.701 0 3.325.687 4.527 1.873A6.46 6.46 0 0 1 14.4 8c0 3.528-2.872 6.4-6.4 6.4A6.41 6.41 0 0 1 1.6 8c0-3.528 2.872-6.4 6.4-6.4M5.014 8.796H3.262c.313 1.945 1.803 3.484 3.723 3.903-.726-.773-1.604-2.431-1.97-3.903m4.695 0H6.672c.723 2.517 1.857 3.87 2.452 3.87.381 0 .687-.972.684-2.636 0-.375-.028-.79-.099-1.234m3.03 0h-1.422c.071.45.086.872.093 1.264 0 .548-.054 1.041-.148 1.483.663-.677 1.31-1.583 1.477-2.747M4.722 4.488c-.745.65-1.297 1.719-1.46 2.716h1.436a9 9 0 0 1-.12-1.357c0-.61.076-1.05.144-1.36m4.402-1.155c.63.662 1.612 2.312 1.881 3.87h1.733a4.78 4.78 0 0 0-3.614-3.87m-2.281 0c-.34.08-.625.973-.622 2.637 0 .375.028.79.099 1.234h3.037C8.616 4.687 7.45 3.19 6.843 3.334" clip-rule="evenodd"/></g><defs><clipPath id="a"><path fill="#fff" d="M0 0h16v16H0z"/></clipPath></defs></svg>
